public/assets/images/career/06.svg

<svg width="60" height="60" viewBox="0 0 60 60" fill="none" xmlns="http://www.w3.org/2000/svg">
<path fill-rule="evenodd" clip-rule="evenodd" d="M53.6673 34.4761C52.0611 36.6503 48.118 40.1411 43.6221 43.3685C39.0212 46.6702 34.9977 48.8916 33.1219 49.1617C28.952 49.7558 27.0281 49.2833 25.4825 48.8984C23.1447 48.3245 21.5437 48.1018 16.9843 50.2286L12.5042 40.7353L22.1636 35.5295C22.9371 35.1108 23.7691 35.0838 24.5687 35.4485L32.6158 39.1081C33.2722 39.4052 33.6086 40.1006 33.4337 40.8029L33.386 40.992C33.386 40.992 33.386 40.992 33.3857 40.992C33.2151 41.6794 32.4851 42.3654 31.7882 42.1128L26.2175 40.0872C26.0927 40.0399 25.9586 40.0265 25.8272 40.0466L23.1994 40.4315C22.7618 40.499 22.459 40.9042 22.5233 41.343C22.5877 41.7818 22.9949 42.0858 23.4328 42.0182L25.8601 41.6604L31.2401 43.6184C32.62 44.1235 34.0855 43.3051 34.7167 41.998L35.3539 42.0047C36.4365 42.0182 37.4077 41.7481 38.3197 41.1607C38.876 40.8029 39.7347 40.2154 40.729 39.5335C42.6458 38.2236 45.2705 36.4276 47.6092 34.9894C51.1965 32.7882 52.3243 32.5451 52.6426 32.5451C53.603 32.5384 54.0255 32.6126 54.4042 33.0718C54.4011 33.1662 54.341 33.5646 53.6673 34.4761ZM16.1374 52.8754C16.229 52.6255 16.2176 52.3554 16.105 52.1191L10.3035 39.8237C10.0641 39.3148 9.4539 39.0936 8.96046 39.3307L6.18054 40.6204C5.68038 40.8536 5.45286 41.4595 5.6889 41.9573L11.4904 54.2527C11.7291 54.7591 12.3317 54.9819 12.8333 54.7456L15.6133 53.4559C15.8584 53.3413 16.0443 53.1388 16.1374 52.8754ZM22.0753 33.828V28.5614C22.0753 28.5344 22.0527 28.5142 22.0274 28.5142H19.5331C19.508 28.5142 19.4848 28.5344 19.4848 28.5614V35.1514L21.4041 34.1183C21.6235 34.0034 21.8479 33.9022 22.0753 33.828ZM30.6179 36.441V23.7674C30.6179 23.7472 30.595 23.7202 30.5699 23.7202H28.0756C28.0503 23.7202 28.0274 23.7472 28.0274 23.7674V35.2594L30.6179 36.441ZM39.1605 38.6623V19.3448C39.1605 19.3178 39.1376 19.2976 39.1123 19.2976H36.6179C36.5929 19.2976 36.5699 19.3178 36.5699 19.3448V40.2356C36.8702 40.1411 37.1602 39.9994 37.453 39.8102C37.8647 39.5468 38.461 39.1417 39.1605 38.6623ZM15.8446 6.15143V37.1162L17.8823 36.0157V28.5616C17.8823 27.65 18.6227 26.9072 19.5329 26.9072H22.0273C22.9375 26.9072 23.6777 27.6499 23.6777 28.5616V33.6053C24.2018 33.6323 24.7253 33.7606 25.2317 33.9901L26.4247 34.5302V23.7676C26.4247 22.856 27.1653 22.1201 28.0755 22.1201H30.5698C31.4798 22.1201 32.2203 22.856 32.2203 23.7676V37.1704L33.2787 37.6497C34.1317 38.0346 34.7309 38.7774 34.9672 39.6281V19.3448C34.9672 18.4333 35.7079 17.6974 36.6178 17.6974H39.1121C40.0223 17.6974 40.763 18.4333 40.763 19.3448V37.5685C41.4526 37.1027 42.1334 36.6367 42.8007 36.1912V12.2282H38.3275C36.8992 12.2282 35.7374 11.0669 35.7374 9.63539V5.16563H16.8319C16.2875 5.16563 15.8446 5.60447 15.8446 6.15143ZM37.3401 6.29987L41.6677 10.6212H38.3276C37.7829 10.6212 37.3401 10.1824 37.3401 9.63539V6.29987ZM55.6885 32.113C54.8186 31.0124 53.7453 30.9313 52.63 30.9382C51.1699 30.9517 48.0898 32.7208 44.4031 35.1312V11.4247C44.4031 11.2153 44.3187 11.0128 44.1683 10.8575L37.1054 3.79487C36.955 3.64631 36.7515 3.55859 36.5389 3.55859H16.8319C15.404 3.55859 14.2421 4.71995 14.2421 6.15143V37.9738L11.8193 39.2837L11.7529 39.1418C11.1391 37.8388 9.5835 37.2715 8.28498 37.8792L5.50506 39.1688C4.20414 39.7751 3.62418 41.3408 4.23954 42.6394L10.0413 54.9348C10.6613 56.2524 12.2317 56.7992 13.5091 56.1974L16.2887 54.9078C17.5027 54.3421 18.0993 52.9358 17.6554 51.6803C21.9428 49.6817 23.2193 49.9922 25.0997 50.4582C26.7799 50.87 28.8706 51.3833 33.3478 50.7486C36.1617 50.3435 41.6398 46.8662 45.8279 43.74C50.0197 40.6138 54.8434 36.4073 55.8093 33.9766C56.1862 33.0312 55.9517 32.4438 55.6885 32.113ZM24.0951 9.95279C25.3553 9.95279 26.4986 10.4659 27.3315 11.283L23.6691 14.9494L22.1132 13.3896C21.8003 13.079 21.293 13.079 20.9801 13.3896C20.6671 13.707 20.6671 14.2134 20.9801 14.524L23.1025 16.6441C23.4135 16.9601 23.9251 16.9598 24.2357 16.6441L28.27 12.6132C29.6911 15.6445 27.4803 19.1761 24.0949 19.1761C21.5528 19.1761 19.4845 17.11 19.4845 14.5645C19.4847 12.0257 21.553 9.95279 24.0951 9.95279ZM24.0951 20.7763C20.6692 20.7763 17.8825 17.9878 17.8825 14.5644C17.8825 11.1412 20.6692 8.35259 24.0951 8.35259C25.7971 8.35259 27.3411 9.04127 28.4643 10.1554L30.001 8.61587C30.3141 8.30531 30.8213 8.30531 31.1343 8.61587C31.4471 8.92643 31.4471 9.43967 31.1343 9.75023L29.4547 11.4314C29.996 12.3497 30.3076 13.4233 30.3076 14.5644C30.3077 17.9876 27.5206 20.7763 24.0951 20.7763Z" fill="#0F62FE"/>
</svg>

<svg xmlns="http://www.w3.org/2000/svg" width="60" height="60" fill="none" viewBox="0 0 60 60"><path fill="#0f62fe" fill-rule="evenodd" d="M53.667 34.476c-1.606 2.174-5.549 5.665-10.045 8.892-4.6 3.302-8.624 5.524-10.5 5.794-4.17.594-6.094.121-7.64-.264-2.337-.574-3.938-.796-8.498 1.33l-4.48-9.493 9.66-5.206a2.61 2.61 0 0 1 2.405-.08l8.047 3.66c.656.296.993.992.818 1.694l-.048.189c-.17.687-.9 1.373-1.598 1.12l-5.57-2.025a.8.8 0 0 0-.39-.04l-2.629.385a.805.805 0 0 0-.676.911.8.8 0 0 0 .91.675l2.427-.358 5.38 1.958c1.38.505 2.846-.313 3.477-1.62l.637.007a5.2 5.2 0 0 0 2.966-.844c.556-.358 1.415-.946 2.409-1.628 1.917-1.31 4.541-3.105 6.88-4.544 3.587-2.2 4.715-2.444 5.034-2.444.96-.007 1.383.068 1.761.527-.003.094-.063.493-.737 1.404m-37.53 18.4a.97.97 0 0 0-.032-.757l-5.802-12.295c-.239-.51-.85-.73-1.343-.493l-2.78 1.29a1.01 1.01 0 0 0-.491 1.336l5.801 12.296c.24.506.842.729 1.343.493l2.78-1.29a1 1 0 0 0 .524-.58m5.938-19.048v-5.267a.05.05 0 0 0-.048-.047h-2.494a.05.05 0 0 0-.048.047v6.59l1.92-1.033a4.3 4.3 0 0 1 .67-.29m8.543 2.613V23.767c0-.02-.023-.047-.048-.047h-2.494c-.026 0-.049.027-.049.047V35.26zm8.543 2.221V19.345a.05.05 0 0 0-.049-.047h-2.494a.05.05 0 0 0-.048.047v20.89c.3-.094.59-.236.883-.425a74 74 0 0 0 1.707-1.148M15.845 6.152v30.964l2.037-1.1v-7.454c0-.912.74-1.655 1.65-1.655h2.495c.91 0 1.65.743 1.65 1.655v5.043a4.3 4.3 0 0 1 1.555.385l1.193.54V23.768c0-.912.74-1.648 1.65-1.648h2.495c.91 0 1.65.736 1.65 1.648V37.17l1.059.48a3.07 3.07 0 0 1 1.688 1.978V19.345c0-.912.74-1.648 1.65-1.648h2.495c.91 0 1.651.736 1.651 1.648v18.224c.69-.466 1.37-.932 2.038-1.378V12.228h-4.474a2.593 2.593 0 0 1-2.59-2.593v-4.47H16.832a.985.985 0 0 0-.987.986M37.34 6.3l4.328 4.321h-3.34a.985.985 0 0 1-.988-.986zm18.348 25.813c-.87-1.1-1.943-1.182-3.058-1.175-1.46.014-4.54 1.783-8.227 4.193V11.425a.82.82 0 0 0-.235-.568l-7.063-7.062a.8.8 0 0 0-.566-.236H16.832a2.593 2.593 0 0 0-2.59 2.592v31.823l-2.423 1.31-.066-.142a2.617 2.617 0 0 0-3.468-1.263l-2.78 1.29c-1.3.606-1.88 2.172-1.265 3.47l5.801 12.296a2.62 2.62 0 0 0 3.468 1.262l2.78-1.29a2.617 2.617 0 0 0 1.366-3.227c4.288-1.998 5.564-1.688 7.445-1.222 1.68.412 3.77.925 8.248.29 2.814-.404 8.292-3.882 12.48-7.008 4.192-3.126 9.015-7.333 9.981-9.763.377-.946.143-1.533-.12-1.864M24.095 9.953c1.26 0 2.404.513 3.236 1.33l-3.662 3.666-1.556-1.56a.803.803 0 0 0-1.133 1.134l2.122 2.121a.796.796 0 0 0 1.134 0l4.034-4.03c1.421 3.03-.79 6.562-4.175 6.562a4.615 4.615 0 0 1-4.61-4.611 4.62 4.62 0 0 1 4.61-4.612m0 10.823a6.22 6.22 0 0 1-6.212-6.212 6.22 6.22 0 0 1 6.212-6.211 6.2 6.2 0 0 1 4.37 1.802L30 8.615a.806.806 0 0 1 1.133 0 .803.803 0 0 1 0 1.135l-1.68 1.681c.542.919.854 1.992.854 3.133a6.22 6.22 0 0 1-6.213 6.212" clip-rule="evenodd"/></svg>
